X:1
T:Title
%%score { 1 | 2 }
L:1/8
Q:1/4=100
M:6/8
K:Eb
V:1 treble nm="Grand Piano"
V:2 bass 
V:1
 G2 G A2 D | F E2- E2 z | [CE]2 [=B,D] [CE]2 [CEA] | [B,EG]6 | [GB]2 [_G=A] [=GB]2 [_Ac] | %5
w: John~R.~Sweney * * *|||||
 [GB] G2- G2 z | E2 E A2 G | [DF]6 | [DF]2 [DF] [DB]2 [FA] | [FA] [EG]2- [EG]2 z | %10
w: |||||
 [=EG]2 [EG] [Ec]2 [GB] | A6 | A2 A d2 [DAc] | [EGB] [Ge]2- [Ge]2 z | [B,E]2 [B,E] [EG]2 [B,F] | %15
w: |||||
 [B,E]6 | [GB]2 [_G=A] [=GB]2 [_Ac] | [GB]3 .G3 | EAG [DF]3 | [DF][GB][FA] [EG]3 | %20
w: |||||
 [GB]2 [_G=A] [=GB]2 [_Ac] | [GB]3 .[Ge]3 | [B,E]2 [B,E] [EG]2 [DF] | [B,E]6 |] %24
w: ||||
V:2
 [E,B,E]2 [E,B,E] [F,B,D]2 [B,,A,B,] | [E,A,B,] [E,G,B,]2- [E,G,B,]2 z | %2
 [A,,A,]2 [A,,A,] [A,,A,]2 A,, | E,6 | [E,E]2 [E,E] [E,E]2 [E,E] | [E,E] [E,B,E]2- [E,B,E]2 z | %6
 [G,B,]2 [G,B,] [F,B,D]2 [E,B,E] | [B,,B,]6 | [B,,B,]2 [B,,B,] [B,,F,]2 [B,,B,] | %9
 [E,B,] [E,B,]2- [E,B,]2 z | [C,C]2 [C,C] [C,G,]2 [C,C] | [F,CF]6 | %12
 [B,DF]2 [B,DF] [B,FA]2[K:bass] B,, | E, [E,B,]2- [E,B,]2 z | [B,,G,]2 [B,,G,] [B,,B,]2 [B,,A,] | %15
 [E,G,]6 | [E,E]2 [E,E] [E,E]2 [E,E] | [E,E]3 .[E,B,E]3 | [G,B,][F,B,D][E,B,E] [B,,B,]3 | %19
 [B,,B,][C,B,][D,B,] [E,B,]3 | [E,E]2 [E,E] [E,E]2 [E,E] | [E,E]3 .[E,B,]3 | %22
 [B,,G,]2 [B,,G,] [B,,B,]2 [B,,A,] | [E,G,]6 |] %24

